X:1
T: The Last of the Twins
C:
R:Reel
Q: 232
K:A
M:4/4
L:1/8
|:((3efg) |ae ce fe cB|Ac ea fe dA|GA Bc de fe|dc BA B2 ((3efg) |
ae ce fe cB|Ac ea fe dA|GA Bc de fg|a2 A2 A2:|
|:((3efg) |ag ab ag fe|fe fg fe cA|GA Bc de fe|dc BA B2 ((3efg) |
ag ab ag fe|fe fg fe cA|GA Bc de fg|a2 ag a2:|
